X: 7239
T:Holms o' Ire
R:Reel
R:Hornpipe
O:Scotland
M:4/4
A:Orkney
K:G
GA|\
B2AB c2Bc|eddB G2B2|dcAF DFAc|ed^cd B2GA|\
B2AB c2Bc|eddB G2B2|dcAF DFAB |
|1 G2BA G2DG :|2 G2BA G2 :: Bd|\
gece gece|dBGB d2d2|
cAFA c2c2|dBGB d2d2|\
gece gece|dBGB d2d2|cAFD CDEF|G2BA G2:|
